X:1
T:44. Old Hundredth
T:Louis Bourgeois (?)
T:Thos. Ken Isaac Watts
T:Transcribed By Jennifer Lee
T:44. Old Hundredth
T:(From All That Dwells Below the Skies)
T:Public Domain circa 1555
C:Louis Bourgeois (?)
Z:Thos. Ken
Z:Isaac Watts
Z:Public Domain circa 1555
%%score { ( 1 2 ) | ( 3 4 5 ) }
L:1/8
M:4/4
K:G
V:1 treble nm="Piano" snm="Pno."
V:2 treble 
V:3 bass 
V:4 bass 
V:5 bass 
V:1
"^This famous tune in the style of a German choral, first appeared in the Geneva Psalter about 1555. The four lines of the Doxology were written by Bishop Thomas Ken (1637-1685). The other set of words given here were written by Isaac Watts (1674-1748), one of the greatest of English hymn writers. This great hymn was conducted with tremendous effect by Patrick S. Gilmore at the great Peace Jubilee in Boson, 1872. (Chorus of 12000, Orchestra 2000), on the arrival of General Grant." G2 | %1
"^Instrument change" G2 F2 E2 D2 |"^Instrument change" G2"^Instrument change" A2 !fermata!B2 B2 | %3
"^Instrument change" B2"^Instrument change" B2 A2 G2 | %4
"^Instrument change" c2"^Instrument change" B2 !fermata!A2 G2 | %5
"^1. From all that dwell below the skies,    Let the Creator's praise arise;    Let the Redeemer's name be sung    Thro' ev'ry land, by ev'ry tongue.2. Eternal are Thy mercies, Lord;    Eternal truth attends Thy word;    Thy praise shall sound from shore to shore,    Till suns shall rise and set no more." A2"^Instrument change" B2 A2 G2 | %6
"^Instrument change" E2 F2 !fermata!G2 d2"^Instrument change" | %7
"^Instrument change" B2"^Instrument change" G2 A2 c2 | %8
"^Instrument change" B2 A2 !fermata!G2 x2"^Instrument change" |] %9
V:2
 D2 | D2 D2 B,2 B,2 | B,2 D2 D2 D2 | D2 G2 F2 G2 | G2 G2 F2 G2 | F2 G2 F2 D2 | E2 D2 D2 D2 | %7
w: Praise|God, from whom all|bless- ings flow; Praise|Him, all crea- tures|here be- low; Praise|Him a- bove, ye|heav'n- ly host; Praise|
 D2 G2 F2 EF | G2 F2 G2 x2 |] %9
w: Fa- ther, Son, and *|Ho- ly Ghost.|
V:3
 B,2 | B,2 A,2 G,2 F,2 | E,2 F,2 G,2 G,2 | B,2 D2 D2 B,2 | E2 D2 D2 B,2 | D2 D2 D2 D2 | %6
 CB, A,2 B,2 B,2 | G,2 B,2 D2 E2 | D2 DC !fermata![G,B,]2 x2 |] %9
V:4
 G,2 | G,2 D,2 E,2 B,,2 | E,2 D,2 F,,2 G,2 | G,2 G,2 D,2 E,2 | C,2 G,,2 D,2 E,2 | %5
 D,2 G,2 D,2 B,,2 | C,2 D,2 G,,2 G,2 | G,2 E,2 D,2 A,,2 | B,,C, D,2 G,,2 x2 |] %9
V:5
 x2 | x8 | x4 !fermata!G,2 x2 | x8 | x8 | x8 | x8 | x8 | x6 x2 |] %9

